X: 11687
T: Eimear's Shuffle
R: jig
M: 6/8
K: Dmixolydian
|:A2 f edB|d2 f gfd|A2 f edB|deB dBG|
A2 f edB|def g3|a2f dAB|def e2 d:|
|:B3 BAg|f2 d efA|BAd AB/c/d|gfa fdA|
B3 BAg|f2 d efg|a2f dAB|def e2 d:|

